X:1
T:Great God, attend while Zion sings
T:Great God, attend while Zion sings - Zion’s Song (Thomas Jarman)
C:Thomas Jarman
Z:p54, The Wesleyan Melodist,
Z:London: [c1840]
%%score [ 1 2 3 4 ]
L:1/8
M:2/2
K:A
V:1 treble nm="Soprano" snm="S."
V:2 treble nm="Alto" snm="A."
V:3 treble-8 transpose=-12 nm="Tenor" snm="T."
V:4 bass nm="Bass" snm="B."
V:1
 A4 A2 B2 | (c3 d e2) f2 | (edcd e2) f2 | e4 z2 d2 | (c2 B2) (A2 G2) | (F2 d2 c2) B2 | c4 B4 | %7
w: All need- ful|grace _ _ will|God _ _ _ _ be-|stow, And|crown _ that _|grace _ _ with|glo- ry|
w: Great God, at-|tend _ _ while|Zi- * * * * on|sings The|joy _ that _|from _ _ thy|pre- sence|
w: Might I en-|joy _ _ the|mean- * * * * est|place With-|in _ thy _|house, _ _ O|God of|
 A6 c2 | B6 A2 | (G3 F E2) e2 | (e2 c2 fe)(dc) | (c4 !fermata!B2) B2 | (c2 f2 e2) d2 | %13
w: too; He|gives us|all _ _ things,|and _ _ _ with- *|holds _ No|re- * * al|
w: springs; To|spend one|day _ _ with|thee _ _ _ on _|earth _ Ex-|ceeds _ _ a|
w: grace, Not|tents of|ease, _ _ nor|thrones _ _ _ of _|pow’r, _ Should|tempt _ _ my|
 (cBcd e2) d2 | c4 B4 | A8 |] %16
w: good _ _ _ _ from|up- right|souls.|
w: thou- * * * * sand|days of|mirth.|
w: feet _ _ _ _ to|leave thy|door.|
V:2
 E4 E2 G2 | A6 A2 | A6 A2 | A4 z2 G2 | (A2 G2) (F2 ^E2) | (F2 G2 A2) F2 | E4 D4 | C6 A2 | G6 F2 | %9
w: All need- ful|grace will|God be-|stow, And|crown _ that _|grace _ _ with|glo- ry|too; He|gives us|
w: Great God, at-|tend while|Zi- on|sings The|joy _ that _|from _ _ thy|pre- sence|springs; To|spend one|
w: Might I en-|joy the|mean- est|place With-|in _ thy _|house, _ _ O|God of|grace, Not|tents of|
 (E3 ^D E2) B2 | A6 F2 | !fermata!E6 G2 | A6 G2 | A6 F2 | E4 D4 | C8 |] %16
w: all _ _ things,|and with-|holds No|re- al|good from|up- right|souls.|
w: day _ _ with|thee on|earth Ex-|ceeds a|thou- sand|days of|mirth.|
w: ease, _ _ nor|thrones of|pow’r, Should|tempt my|feet to|leave thy|door.|
V:3
 c4 A2 e2 | (e3 d c2) d2 | (cded c2) d2 | c4 z2 B2 | (A2 B2) c4 | (A2 B2 A2) A2 | A4 G4 | A6 e2 | %8
w: All need- ful|grace _ _ will|God _ _ _ _ be-|stow, And|crown _ that|grace _ _ with|glo- ry|too; He|
w: Great God, at-|tend _ _ while|Zi- * * * * on|sings The|joy _ that|from _ _ thy|pre- sence|springs; To|
w: Might I en-|joy _ _ the|mean- * * * * est|place With-|in _ thy|house, _ _ O|God of|grace, Not|
 e6 ^d2 | (B3 A G2) B2 | (c4 dc)(BA) | (A4 !fermata!G2) e2 | (e2 f2 c2) e2 | (efed c2) A2 | A4 G4 | %15
w: gives us|all _ _ things,|and _ _ with- *|holds _ No|re- * * al|good _ _ _ _ from|up- right|
w: spend one|day _ _ with|thee _ _ on _|earth _ Ex-|ceeds _ _ a|thou- * * * * sand|days of|
w: tents of|ease, _ _ nor|thrones _ _ of _|pow’r, _ Should|tempt _ _ my|feet _ _ _ _ to|leave thy|
 A8 |] %16
w: souls.|
w: mirth|
w: door.|
V:4
 A,,4 C,2 E,2 | [A,,A,]6 [A,,A,]2 | [A,,A,]6 [A,,A,]2 | [A,,A,]4 z2 B,,2 | C,4 C,4 | %5
w: All need- ful|grace will|God be-|stow, And|crown that|
w: Great God, at-|tend while|Zi- on|sings The|joy that|
w: Might I en-|joy the|mean- est|place With-|in thy|
 (D,2 B,,2 C,2) D,2 | E,4 E,4 | A,,6 A,2 | E,6 B,,2 | E,6 G,2 | (A,4 D,2) D,2 | %11
w: grace _ _ with|glo- ry|too; He|gives us|all things,|and _ with-|
w: from _ _ thy|pre- sence|springs; To|spend one|day with|thee _ on|
w: house, _ _ O|God of|grace, Not|tents of|ease, nor|thrones _ of|
"^The source gives the parts in the order Tenor - Alto - Treble - Bass (labelled as such in the first piece in the book).The treble and bass parts are bracketed together, with small notes between them to fill in the harmony of a keyboardpart doubling the voices. This accompaniment has been omitted from the present edition. Only the opening words ofthe first verse of the text are given in the source: this and three subsequent verses have been underlaid editorially." !fermata!E,6 E,2 | %12
w: holds No|
w: earth Ex-|
w: pow’r, Should|
 (A,2 D2 C2) B,2 | A,6 D,2 | E,4 E,4 | A,,8 |] %16
w: re- * * al|good from|up- right|souls.|
w: ceeds _ _ a|thou- sand|days of|mirth.|
w: tempt _ _ my|feet to|leave thy|door.|

